X:165
T:Steirer
C:traditionell
R:Steirer
A:Bad Ischl, Salzkammergut
B:"Pfeifermusik aus Bad Ischl", Lois Blamberger, 3. Auflage, Bad Ischl 1990
S:im buch mit der Angabe: aus der Sammlung vom Blamberger Lois
N:im buch in D, nr. 6/3
Z:abc transcription Simon Wascher
M:3/4
L:1/8
K:D
V:1
(a>a) |\
(fa) f2 a>a | (ga) g2 a>a | (ac' ba gA) | (db) a2 a>a |\
(fa) f2 a>a | (ga) g2 a>a | (ac'bagA) | d2 z2 :|
V:2
(f>f) |\
(dA) d2 A>A | (eA) e2 e>d | (ce cE AG) | (Fg) f2 f>f |\
(dA) d2 A>A | (eA) e2 c>c | (eagecA) | F4 :|
